svgs/light/naira-sign.svg

<svg xmlns="http://www.w3.org/2000/svg" viewBox="0 0 448 512"><!--! Font Awesome Pro 6.0.0-alpha3 by @fontawesome - https://fontawesome.com License - https://fontawesome.com/license (Commercial License) --><path d="M432 256H384V48C384 39.16 376.8 32 368 32S352 39.16 352 48V256h-108.5L93.16 38.91C89.19 33.16 81.97 30.75 75.22 32.72C68.56 34.81 64 41 64 48V256H16C7.156 256 0 263.2 0 272S7.156 288 16 288H64v176C64 472.8 71.16 480 80 480S96 472.8 96 464V288h130.7l128.1 185.1C357.9 477.5 362.8 480 368 480c1.594 0 3.188-.25 4.781-.7187C379.4 477.2 384 471 384 464V288h48C440.8 288 448 280.8 448 272S440.8 256 432 256zM96 256V99.22L204.5 256H96zM352 412.8L265.6 288H352V412.8z"/></svg>

<svg xmlns="http://www.w3.org/2000/svg" viewBox="0 0 448 512"><!--! Font Awesome Pro 6.4.2 by @fontawesome - https://fontawesome.com License - https://fontawesome.com/license (Commercial License) Copyright 2023 Fonticons, Inc. --><path d="M93.2 38.9c-4-5.8-11.2-8.3-17.9-6.2S64 41 64 48V256H16c-8.8 0-16 7.2-16 16s7.2 16 16 16H64V464c0 8.8 7.2 16 16 16s16-7.2 16-16V288H226.7L354.8 473.1c4 5.8 11.2 8.3 17.9 6.2s11.2-8.3 11.2-15.3V288h48c8.8 0 16-7.2 16-16s-7.2-16-16-16H384V48c0-8.8-7.2-16-16-16s-16 7.2-16 16V256H243.5L93.2 38.9zM265.6 288H352V412.8L265.6 288zm-61.1-32H96V99.2L204.5 256z"/></svg>
